svg/24/opacity-set.svg

<svg width="24" height="24" viewBox="0 0 24 24" fill="currentColor" xmlns="http://www.w3.org/2000/svg"><path d="M6.78033 3.21967C7.07322 3.51256 7.07322 3.98744 6.78033 4.28033L4.28033 6.78033C3.98744 7.07322 3.51256 7.07322 3.21967 6.78033C2.92678 6.48744 2.92678 6.01256 3.21967 5.71967L5.71967 3.21967C6.01256 2.92678 6.48744 2.92678 6.78033 3.21967Z"/><path d="M13.7803 3.21967C14.0732 3.51256 14.0732 3.98744 13.7803 4.28033L4.28033 13.7803C3.98744 14.0732 3.51256 14.0732 3.21967 13.7803C2.92678 13.4874 2.92678 13.0126 3.21967 12.7197L12.7197 3.21967C13.0126 2.92678 13.4874 2.92678 13.7803 3.21967Z"/><path d="M20.7803 3.21967C21.0732 3.51256 21.0732 3.98744 20.7803 4.28033L4.28033 20.7803C3.98744 21.0732 3.51256 21.0732 3.21967 20.7803C2.92678 20.4874 2.92678 20.0126 3.21967 19.7197L19.7197 3.21967C20.0126 2.92678 20.4874 2.92678 20.7803 3.21967Z"/><path d="M20.7803 10.2197C21.0732 10.5126 21.0732 10.9874 20.7803 11.2803L20.3863 11.6744C19.8924 11.4292 19.363 11.245 18.8077 11.1316L19.7197 10.2197C20.0126 9.92678 20.4874 9.92678 20.7803 10.2197Z"/><path d="M11.1316 18.8077C11.245 19.363 11.4292 19.8924 11.6744 20.3863L11.2803 20.7803C10.9874 21.0732 10.5126 21.0732 10.2197 20.7803C9.92678 20.4874 9.92678 20.0126 10.2197 19.7197L11.1316 18.8077Z"/><path fill-rule="evenodd" clip-rule="evenodd" d="M17.5 23C20.5376 23 23 20.5376 23 17.5C23 14.4624 20.5376 12 17.5 12C14.4624 12 12 14.4624 12 17.5C12 20.5376 14.4624 23 17.5 23ZM20.0001 15.4999C20.0001 15.2238 19.7762 14.9999 19.5001 14.9999H16.6716C16.3955 14.9999 16.1716 15.2238 16.1716 15.4999C16.1716 15.7761 16.3955 15.9999 16.6716 15.9999H18.293L15.1464 19.1465C14.9511 19.3418 14.9511 19.6584 15.1464 19.8536C15.3416 20.0489 15.6582 20.0489 15.8535 19.8536L19.0001 16.707V18.3284C19.0001 18.6045 19.2239 18.8284 19.5001 18.8284C19.7762 18.8284 20.0001 18.6045 20.0001 18.3284V15.4999Z"/></svg>

<svg xmlns="http://www.w3.org/2000/svg" width="24" height="24" fill="currentColor" viewBox="0 0 24 24">
  <path d="M6.78 3.22a.75.75 0 0 1 0 1.06l-2.5 2.5a.75.75 0 0 1-1.06-1.06l2.5-2.5a.75.75 0 0 1 1.06 0Zm7 0a.75.75 0 0 1 0 1.06l-9.5 9.5a.75.75 0 0 1-1.06-1.06l9.5-9.5a.75.75 0 0 1 1.06 0Zm7 0a.75.75 0 0 1 0 1.06l-16.5 16.5a.75.75 0 0 1-1.06-1.06l16.5-16.5a.75.75 0 0 1 1.06 0Zm0 7a.75.75 0 0 1 0 1.06l-.394.394a6.45 6.45 0 0 0-1.578-.542l.912-.912a.75.75 0 0 1 1.06 0Zm-9.648 8.588a6.45 6.45 0 0 0 .542 1.578l-.394.394a.75.75 0 1 1-1.06-1.06l.912-.912Z"/>
  <path fill-rule="evenodd" d="M17.5 23a5.5 5.5 0 1 0 0-11 5.5 5.5 0 0 0 0 11Zm2.5-7.5a.5.5 0 0 0-.5-.5h-2.828a.5.5 0 0 0 0 1h1.621l-3.147 3.146a.5.5 0 1 0 .707.708L19 16.707v1.621a.5.5 0 1 0 1 0V15.5Z" clip-rule="evenodd"/>
</svg>
